public/assets/icons/01.svg

<svg width="100" height="88" viewBox="0 0 100 88" fill="none" xmlns="http://www.w3.org/2000/svg">
<g clip-path="url(#clip0_25_1599)">
<path d="M23.4889 83.6187C23.886 83.6187 24.2676 83.3985 24.46 83.02L40.2765 51.5792C40.5465 51.0424 40.3293 50.3909 39.7956 50.121C39.2589 49.8511 38.6074 50.0682 38.3375 50.6019L22.5209 82.0427C22.251 82.5794 22.4681 83.2309 23.0018 83.5009C23.1569 83.5784 23.3244 83.6157 23.4889 83.6157V83.6187Z" fill="#7E80E7"/>
<path d="M58.9788 83.4977C59.1432 83.4977 59.3076 83.4605 59.4627 83.383C59.9995 83.1161 60.2167 82.4646 59.9498 81.9248C59.8413 81.7045 48.9732 59.9311 44.4435 50.7042C44.1798 50.1644 43.5283 49.9441 42.9915 50.2078C42.4517 50.4716 42.2314 51.1231 42.4951 51.6598C47.0279 60.8929 57.8991 82.6756 58.0077 82.8927C58.1969 83.2744 58.5816 83.4946 58.9788 83.4946V83.4977Z" fill="#7E80E7"/>
<path d="M41.372 87.9033C41.9708 87.9033 42.4579 87.4162 42.4579 86.8174V51.7591C42.4579 51.1603 41.9708 51.2937 41.372 51.2937C40.7732 51.2937 40.2861 51.1603 40.2861 51.7591V86.8174C40.2861 87.4162 40.7732 87.9033 41.372 87.9033Z" fill="#7E80E7"/>
<path d="M50.0839 67.8828C50.5555 67.8828 50.9898 67.5726 51.1263 67.0948C51.2908 66.5177 50.9557 65.9158 50.3786 65.7514L41.7785 63.2973C41.5985 63.2446 41.4062 63.2415 41.2231 63.2849L31.1276 65.739C30.5443 65.8817 30.1875 66.4681 30.3271 67.0514C30.4698 67.6346 31.0562 67.9914 31.6395 67.8518L41.4558 65.466L49.7798 67.8394C49.8791 67.8673 49.9784 67.8797 50.0777 67.8797L50.0839 67.8828Z" fill="#7E80E7"/>
<path d="M59.9561 36.9385C59.6862 36.8361 59.4721 36.6282 59.3542 36.3645L50.0157 15.3202C49.8978 15.0565 49.8916 14.7586 49.994 14.4887C50.0963 14.2188 50.3042 14.0047 50.5679 13.8868L65.5871 7.22265C66.1363 6.98065 66.7754 7.22575 67.0205 7.77489L76.3591 28.8161C76.601 29.3652 76.3559 30.0044 75.8068 30.2495L60.7876 36.9167C60.648 36.9788 60.4959 37.0098 60.347 37.0098C60.2136 37.0098 60.0833 36.985 59.9561 36.9385ZM65.4755 9.64881L52.4418 15.4319L60.8993 34.4906L73.9329 28.7044L65.4755 9.64571V9.64881Z" fill="#AFDCF2"/>
<path d="M47.6485 16.9335L51.0116 15.4257C51.2753 15.3078 51.5731 15.2985 51.8431 15.4009C52.113 15.5032 52.3302 15.708 52.448 15.9717L60.4401 33.7987C60.558 34.0624 60.5673 34.3603 60.4649 34.6302C60.3625 34.9001 60.1578 35.1173 59.8941 35.2352L56.5309 36.743C56.3882 36.8082 56.2362 36.8392 56.0873 36.8392C55.6716 36.8392 55.2775 36.6003 55.0945 36.197L50.7975 26.9949C51.4521 26.7095 52.1099 26.4396 52.7707 26.2069C52.7862 26.2007 52.7986 26.1821 52.8172 26.1821L56.6333 34.3199L58.017 33.6994L50.9123 17.8518L49.5286 18.4723L51.0736 21.9378L49.0632 22.76L47.1024 18.37C46.8573 17.8239 47.1024 17.1786 47.6485 16.9335Z" fill="#AFDCF2"/>
<path d="M51.4956 22.9617L52.4047 24.9411L50.3105 25.7167L49.479 23.79L51.4956 22.9617Z" fill="#AFDCF2"/>
<path d="M44.7009 20.2749L48.4022 18.615C48.4425 18.5964 48.4828 18.5871 48.5232 18.5747C48.489 18.6926 48.4704 18.8229 48.4828 18.9749C48.5356 19.5644 48.6473 20.1353 48.79 20.6968C48.5976 20.8085 48.4518 20.9823 48.3587 21.1777L48.2998 21.0443L46.581 21.8137L52.3269 34.6333L54.0456 33.8639L53.8905 33.5226C54.0674 33.5381 54.2504 33.5195 54.4428 33.4388C54.1853 33.5443 54.3187 33.504 54.5079 33.6281C54.7127 33.7615 54.8988 33.898 55.0726 34.0717C55.1501 34.1493 55.2246 34.23 55.2991 34.3075C55.479 34.5805 55.662 34.8474 55.8358 35.1173C55.8947 35.2072 55.9568 35.2786 56.0219 35.3438C55.9878 35.3624 55.9568 35.3841 55.9227 35.3996L52.2214 37.0594C52.0787 37.1246 51.9266 37.1556 51.7777 37.1556C51.362 37.1556 50.968 36.9167 50.7849 36.5134L44.1517 21.7113C43.9066 21.1653 44.1517 20.5231 44.6978 20.278L44.7009 20.2749Z" fill="#AFDCF2"/>
<path d="M35.6787 25.9091L37.5868 25.1086C37.593 25.1613 37.624 25.0652 37.6519 25.1179C37.9435 25.7198 38.3158 26.3806 38.5578 27.0042L36.5939 27.876C36.2868 27.2214 35.9859 26.5606 35.6818 25.906L35.6787 25.9091Z" fill="#AFDCF2"/>
<path d="M29.6353 28.6672L34.5993 26.4178C34.9064 27.0756 35.2074 27.7333 35.5114 28.3879L30.6622 30.5628C30.2961 29.9082 29.9951 29.3001 29.6353 28.6672Z" fill="#AFDCF2"/>
<path d="M26.1294 30.2153L28.6828 29.0705C29.0427 29.7034 29.325 30.1595 29.7376 30.9878L28.0095 31.7511L32.3996 41.5426L49.5906 33.8359L45.2005 24.0444L39.6408 26.4489C39.3058 25.726 39.0328 25.2451 38.7256 24.6184C38.7132 24.5936 38.7752 24.5812 38.7597 24.5626L45.3029 21.6183C45.5666 21.5004 45.8645 21.4911 46.1344 21.5935C46.4043 21.6958 46.6215 21.9006 46.7394 22.1643L52.0167 33.9383C52.2618 34.4844 52.0167 35.1266 51.4707 35.3717L32.2972 43.9656C32.1545 44.0308 32.0056 44.0618 31.8536 44.0618C31.7232 44.0618 31.5929 44.037 31.4657 43.9905C31.1958 43.8881 30.9786 43.6833 30.8608 43.4196L25.5834 31.6456C25.3383 31.0995 25.5834 30.4573 26.1294 30.2122V30.2153Z" fill="#AFDCF2"/>
<path d="M14.7832 49.0134L10.8616 40.2675C10.7437 40.0037 10.7344 39.7059 10.8368 39.436C10.9392 39.1661 11.144 38.9489 11.4077 38.831L26.8799 31.8938C27.1436 31.7759 27.4414 31.7666 27.7113 31.869C27.9813 31.9714 28.1984 32.1761 28.3163 32.4398L32.2379 41.1858C32.3558 41.4495 32.3651 41.7473 32.2627 42.0173C32.1603 42.2872 31.9556 42.5044 31.6919 42.6223L16.2197 49.5595C16.0769 49.6246 15.9249 49.6556 15.776 49.6556C15.3603 49.6556 14.9662 49.4167 14.7832 49.0134ZM26.7806 34.3231L13.2878 40.3698L16.3189 47.1333L29.8117 41.0865L26.7806 34.3231Z" fill="#AFDCF2"/>
<path d="M3.60203 52.0074L1.18828 46.6245C1.07039 46.3608 1.06108 46.0629 1.16346 45.793C1.26585 45.5231 1.47061 45.3059 1.73432 45.188L12.1618 40.5126C12.4256 40.3947 12.7234 40.3854 12.9933 40.4877C13.2632 40.5901 13.4804 40.7949 13.5983 41.0586L16.0121 46.4415C16.2572 46.9875 16.0121 47.6328 15.466 47.8748L5.03849 52.5503C4.89578 52.6154 4.74376 52.6465 4.59484 52.6465C4.1791 52.6465 3.78508 52.4076 3.60203 52.0042V52.0074ZM12.0626 42.9418L3.61755 46.7269L5.14088 50.1272L13.5859 46.3422L12.0626 42.9418Z" fill="#AFDCF2"/>
<path d="M5.3766 54.9175C5.52552 54.9175 5.67754 54.8865 5.82336 54.8213C6.3694 54.5731 6.61139 53.9309 6.3663 53.3848L2.07553 43.9005C1.82733 43.3544 1.18511 43.1124 0.639068 43.3575C0.0930268 43.6057 -0.148969 44.248 0.0961293 44.794L4.3869 54.2784C4.56684 54.6786 4.96396 54.9175 5.3766 54.9175Z" fill="#AFDCF2"/>
<path d="M34.4779 48.5946C34.63 48.5946 34.782 48.5635 34.9278 48.4953L48.9077 42.1227C49.4506 41.8745 49.6926 41.2354 49.4506 40.6925L47.3875 36.0666C47.1424 35.5175 46.5001 35.2724 45.9541 35.5175C45.405 35.7626 45.1599 36.4048 45.405 36.9509L47.0276 40.5932L34.9619 46.0908L32.8584 42.0762C32.5792 41.5457 31.9246 41.3409 31.394 41.617C30.8635 41.8963 30.6588 42.5509 30.9349 43.0814L33.5162 48.0051C33.7085 48.3743 34.087 48.5884 34.4779 48.5884V48.5946Z" fill="#AFDCF2"/>
<path d="M36.7182 46.0195C37.317 46.0195 37.8041 46.5066 37.8041 47.1054V49.8976H44.6296V44.6233H42.3741C42.464 44.5737 42.5509 44.5148 42.6347 44.4558C43.1745 44.279 43.5965 43.9625 43.9222 43.5654C44.2449 43.5437 44.5365 43.4785 44.8033 43.3823H45.7155C46.3143 43.3823 46.8014 42.3182 46.8014 42.917V50.9835C46.8014 51.5823 46.3143 52.0694 45.7155 52.0694H36.7182C36.1194 52.0694 35.6323 51.5823 35.6323 50.9835V47.1054C35.6323 46.5066 36.1194 46.0195 36.7182 46.0195Z" fill="#AFDCF2"/>
<path d="M92.6904 21.8758C93.1868 21.8758 93.6366 21.5314 93.7483 21.0257C93.8786 20.4393 93.5094 19.8592 92.9262 19.7289C92.7772 19.6916 91.3749 19.3131 91.2539 17.9046C91.2074 17.3492 90.7482 16.9211 90.1898 16.9118C89.6437 16.9025 89.1597 17.3182 89.0946 17.8704C89.0729 18.0411 88.8278 19.611 87.5309 19.7071C86.9321 19.7506 86.4854 20.2718 86.5288 20.8706C86.5722 21.4694 87.0966 21.9192 87.6922 21.8727C88.8309 21.7858 89.6437 21.2491 90.2022 20.5727C91.1546 21.5469 92.3739 21.8324 92.4515 21.851C92.5321 21.8696 92.6097 21.8758 92.6904 21.8758Z" fill="#D77599"/>
<path d="M90.1621 24.5936C90.705 24.5936 91.1704 24.1871 91.2386 23.6411C91.2604 23.4891 91.5024 22.0619 92.8612 21.8758C93.4538 21.7951 93.8727 21.2491 93.792 20.6534C93.7113 20.0577 93.1653 19.6389 92.5696 19.7226C91.521 19.8654 90.7546 20.3556 90.2117 20.9543C89.4671 20.2035 88.4836 19.8405 87.829 19.7413C87.2364 19.6513 86.6811 20.0577 86.5911 20.6503C86.5011 21.2429 86.9075 21.7982 87.5001 21.8882C87.7514 21.9316 89.0514 22.2202 89.0762 23.5263C89.0855 24.0972 89.5354 24.5626 90.1031 24.5905C90.1217 24.5905 90.1434 24.5905 90.1621 24.5905V24.5936Z" fill="#D77599"/>
<path d="M98.8864 5.53178C99.389 5.53178 99.8389 5.18119 99.9475 4.66928C100.072 4.08291 99.6962 3.50584 99.1098 3.38174C98.9144 3.3383 97.1273 2.87603 96.9381 0.977297C96.8822 0.425051 96.423 0.00621253 95.8677 7.51763e-06C95.3185 -0.0061975 94.8439 0.409538 94.7787 0.958682C94.7663 1.04555 94.4654 3.22972 92.6969 3.36312C92.0981 3.40656 91.6514 3.92778 91.6948 4.52656C91.7382 5.12535 92.2595 5.57211 92.8583 5.52867C94.273 5.42319 95.2503 4.70341 95.8925 3.8316C96.7581 4.83992 97.9215 5.35183 98.6599 5.51006C98.7344 5.52557 98.812 5.53488 98.8864 5.53488V5.53178Z" fill="#D77599"/>
<path d="M95.8462 8.80183C96.3891 8.80183 96.8545 8.39851 96.9228 7.84936C96.9507 7.6446 97.261 5.78309 99.0604 5.538C99.6561 5.45733 100.072 4.91129 99.9912 4.31561C99.9105 3.72303 99.3645 3.30729 98.7688 3.38486C97.4502 3.5648 96.5195 4.22253 95.8897 5.00126C95.0334 4.06431 93.842 3.57101 93.0571 3.41278C92.4676 3.29178 91.8967 3.67339 91.7788 4.26287C91.6609 4.85234 92.0394 5.4232 92.6289 5.5411C92.7096 5.55971 94.7634 6.01578 94.7603 7.71285C94.7603 8.28682 95.204 8.7615 95.778 8.79873C95.7997 8.79873 95.8245 8.79873 95.8462 8.79873V8.80183Z" fill="#D77599"/>
<path d="M77.3579 8.49775C77.9566 8.49775 78.4437 8.01066 78.4437 7.41187V3.4841C78.4437 2.88532 77.9566 2.39822 77.3579 2.39822C76.7591 2.39822 76.272 2.88532 76.272 3.4841V7.41187C76.272 8.01066 76.7591 8.49775 77.3579 8.49775Z" fill="#D77599"/>
<path d="M75.394 6.53076H79.3218C79.9205 6.53076 80.4076 6.04367 80.4076 5.44489C80.4076 4.8461 79.9205 4.35901 79.3218 4.35901H75.394C74.7952 4.35901 74.3081 4.8461 74.3081 5.44489C74.3081 6.04367 74.7952 6.53076 75.394 6.53076Z" fill="#D77599"/>
<path d="M30.411 23.1416C30.0107 23.1416 29.6291 22.9213 29.4368 22.5397C29.17 22.0061 29.3871 21.3515 29.9239 21.0846C30.4606 20.8147 31.1121 21.035 31.3821 21.5686C31.6489 22.1054 31.4317 22.7569 30.895 23.0268C30.7398 23.1044 30.5723 23.1416 30.411 23.1416ZM34.0161 21.3421C33.619 21.3421 33.2343 21.1219 33.045 20.7403C32.7782 20.2035 32.9954 19.552 33.5321 19.2852C34.0688 19.0153 34.7204 19.2324 34.9872 19.7692C35.2571 20.3059 35.0399 20.9574 34.5032 21.2243C34.3449 21.3049 34.1805 21.3421 34.0161 21.3421ZM37.6243 19.5334C37.2272 19.5334 36.8425 19.3131 36.6532 18.9346C36.3864 18.3979 36.6036 17.7463 37.1372 17.4764C37.6739 17.2096 38.3286 17.4268 38.5954 17.9635C38.8622 18.5003 38.645 19.1518 38.1114 19.4186C37.9532 19.4962 37.7887 19.5334 37.6243 19.5334Z" fill="#AFDCF2"/>
</g>
<defs>
<clipPath id="clip0_25_1599">
<rect width="100" height="87.9033" fill="white"/>
</clipPath>
</defs>
</svg>

<svg xmlns="http://www.w3.org/2000/svg" width="100" height="88" fill="none" viewBox="0 0 100 88"><g clip-path="url(#a)"><path fill="#7e80e7" d="M23.489 83.619c.397 0 .779-.22.971-.599l15.816-31.44a1.087 1.087 0 0 0-1.939-.978l-15.816 31.44a1.087 1.087 0 0 0 .968 1.574zm35.49-.121a1.087 1.087 0 0 0 .971-1.573c-.109-.22-10.977-21.994-15.507-31.22a1.084 1.084 0 1 0-1.948.955c4.533 9.233 15.404 31.016 15.513 31.233.189.381.574.602.97.602z"/><path fill="#7e80e7" d="M41.372 87.903c.599 0 1.086-.487 1.086-1.086V51.76c0-.599-.487-.465-1.086-.465s-1.086-.134-1.086.465v35.058c0 .6.487 1.086 1.086 1.086"/><path fill="#7e80e7" d="M50.084 67.883a1.085 1.085 0 0 0 .295-2.132l-8.6-2.454a1.1 1.1 0 0 0-.556-.012l-10.095 2.454a1.09 1.09 0 0 0-.8 1.312c.142.584.728.94 1.312.8l9.816-2.385 8.324 2.373q.149.041.298.04z"/><path fill="#afdcf2" d="M59.956 36.939a1.08 1.08 0 0 1-.602-.575L50.016 15.32a1.09 1.09 0 0 1 .552-1.433l15.02-6.664a1.087 1.087 0 0 1 1.433.552l9.338 21.041a1.087 1.087 0 0 1-.552 1.434l-15.02 6.667a1.1 1.1 0 0 1-.83.021m5.52-27.29-13.034 5.783L60.9 34.49l13.034-5.787-8.458-19.058z"/><path fill="#afdcf2" d="m47.649 16.934 3.363-1.508a1.09 1.09 0 0 1 1.436.546l7.992 17.827a1.09 1.09 0 0 1-.546 1.436l-3.363 1.508a1.09 1.09 0 0 1-1.436-.546l-4.298-9.202a29 29 0 0 1 1.974-.788c.015-.006.028-.025.046-.025l3.816 8.138 1.384-.62-7.105-15.848-1.383.62 1.545 3.466-2.01.822-1.962-4.39a1.09 1.09 0 0 1 .547-1.437"/><path fill="#afdcf2" d="m51.496 22.962.909 1.98-2.095.775-.831-1.927z"/><path fill="#afdcf2" d="m44.7 20.275 3.702-1.66c.04-.019.08-.028.121-.04a1.1 1.1 0 0 0-.04.4c.053.59.164 1.16.307 1.722a1.1 1.1 0 0 0-.431.48l-.06-.133-1.718.77 5.746 12.82 1.719-.77-.155-.341c.176.015.36-.004.552-.084-.258.105-.124.065.065.19.205.133.39.269.565.443q.115.117.226.235c.18.273.363.54.537.81.059.09.12.162.186.227-.034.018-.065.04-.1.056l-3.7 1.66a1.09 1.09 0 0 1-1.437-.546L44.152 21.71c-.245-.546 0-1.188.546-1.433zm-9.021 5.635 1.908-.801c.006.052.037-.044.065.009.291.602.664 1.263.906 1.886l-1.964.872c-.307-.655-.608-1.315-.912-1.97zm-6.044 2.757 4.964-2.25c.307.659.608 1.316.912 1.97l-4.849 2.176c-.366-.655-.667-1.263-1.027-1.896"/><path fill="#afdcf2" d="m26.13 30.215 2.553-1.145c.36.633.642 1.09 1.055 1.918l-1.729.763 4.39 9.792 17.192-7.707-4.39-9.792-5.56 2.405c-.335-.723-.608-1.204-.915-1.83-.013-.025.05-.038.034-.056l6.543-2.945a1.09 1.09 0 0 1 1.436.546l5.278 11.774c.245.546 0 1.189-.546 1.434l-19.174 8.594a1.1 1.1 0 0 1-.443.096q-.196 0-.388-.072a1.08 1.08 0 0 1-.605-.57l-5.278-11.774c-.245-.547 0-1.189.546-1.434z"/><path fill="#afdcf2" d="m14.783 49.013-3.921-8.745a1.09 1.09 0 0 1 .546-1.437l15.472-6.937a1.09 1.09 0 0 1 1.436.546l3.922 8.746a1.09 1.09 0 0 1-.546 1.436L16.22 49.56a1.09 1.09 0 0 1-1.436-.546m11.998-14.69L13.288 40.37l3.03 6.763 13.494-6.047z"/><path fill="#afdcf2" d="m3.602 52.007-2.414-5.382a1.09 1.09 0 0 1 .546-1.437l10.428-4.675a1.09 1.09 0 0 1 1.436.546l2.414 5.383c.245.545 0 1.19-.546 1.433L5.038 52.55a1.09 1.09 0 0 1-1.436-.546zm8.46-9.065-8.444 3.785 1.523 3.4 8.445-3.785z"/><path fill="#afdcf2" d="M5.377 54.918q.225 0 .446-.097c.546-.248.788-.89.543-1.436L2.076 43.9a1.09 1.09 0 0 0-1.437-.544 1.09 1.09 0 0 0-.543 1.437l4.29 9.484c.18.4.578.64.99.64m29.102-6.322q.23.001.45-.1l13.98-6.372c.543-.248.785-.888.543-1.43l-2.063-4.626a1.084 1.084 0 0 0-1.434-.55 1.085 1.085 0 0 0-.549 1.434l1.623 3.642-12.066 5.498-2.104-4.015a1.09 1.09 0 0 0-1.464-.459 1.09 1.09 0 0 0-.46 1.464l2.582 4.924c.193.37.571.583.962.583z"/><path fill="#afdcf2" d="M36.718 46.02c.599 0 1.086.487 1.086 1.085v2.793h6.826v-5.275h-2.256q.135-.077.26-.167c.54-.177.962-.494 1.288-.89.323-.022.614-.088.881-.184h.913c.598 0 1.085-1.064 1.085-.465v8.066c0 .6-.487 1.086-1.086 1.086h-8.997a1.087 1.087 0 0 1-1.086-1.086v-3.878c0-.598.487-1.085 1.086-1.085"/><path fill="#d77599" d="M92.69 21.876a1.086 1.086 0 0 0 .236-2.147c-.149-.037-1.551-.416-1.672-1.824a1.084 1.084 0 0 0-1.064-.993 1.094 1.094 0 0 0-1.095.958c-.022.171-.267 1.741-1.564 1.837a1.085 1.085 0 1 0 .161 2.166 3.5 3.5 0 0 0 2.51-1.3c.953.974 2.172 1.26 2.25 1.278q.119.027.238.025"/><path fill="#d77599" d="M90.162 24.594c.543 0 1.008-.407 1.077-.953.021-.152.263-1.58 1.622-1.765a1.087 1.087 0 0 0-.291-2.153 3.8 3.8 0 0 0-2.358 1.231c-.745-.75-1.728-1.114-2.383-1.213a1.086 1.086 0 0 0-.329 2.147c.251.044 1.551.332 1.576 1.638.01.571.46 1.037 1.027 1.064h.06zm8.724-19.062a1.086 1.086 0 0 0 .224-2.15c-.196-.044-1.983-.506-2.172-2.405a1.085 1.085 0 0 0-2.16-.018c-.012.087-.313 2.27-2.081 2.404a1.085 1.085 0 1 0 .161 2.166c1.415-.106 2.392-.826 3.034-1.697.866 1.008 2.03 1.52 2.768 1.678.074.016.152.025.226.025z"/><path fill="#d77599" d="M95.846 8.802c.543 0 1.008-.403 1.077-.953.028-.204.338-2.066 2.137-2.311a1.085 1.085 0 0 0 .931-1.222 1.09 1.09 0 0 0-1.222-.931A4.37 4.37 0 0 0 95.889 5c-.856-.937-2.047-1.43-2.832-1.588-.59-.121-1.16.26-1.278.85s.26 1.16.85 1.278c.08.019 2.134.475 2.131 2.172 0 .574.444 1.048 1.018 1.086h.068zm-18.488-.304c.599 0 1.086-.487 1.086-1.086V3.484a1.087 1.087 0 0 0-2.172 0v3.928c0 .599.487 1.086 1.086 1.086"/><path fill="#d77599" d="M75.394 6.53h3.928a1.087 1.087 0 0 0 0-2.171h-3.928a1.087 1.087 0 0 0 0 2.172"/><path fill="#afdcf2" d="M30.411 23.142a1.086 1.086 0 0 1-.487-2.057 1.09 1.09 0 0 1 1.458.484 1.09 1.09 0 0 1-.971 1.573m3.605-1.8a1.085 1.085 0 0 1-.484-2.057 1.08 1.08 0 0 1 1.455.484 1.08 1.08 0 0 1-.484 1.455q-.238.119-.487.118m3.608-1.809a1.087 1.087 0 0 1-.487-2.057 1.086 1.086 0 1 1 .487 2.057"/></g><defs><clipPath id="a"><path fill="#fff" d="M0 0h100v87.903H0z"/></clipPath></defs></svg>
